T: Gan Ainm
M: 6/8
L: 1/8
K: Dmin
d2 d A2 G | F2 G A2 A | G2 F A2 ^C | D3- D2 :|E2 D ^C2 D | E2 F G2 E | F2 G A B2 | A3 d3 |c2 B A2 G | F2 G A2 F | E D2 A2 ^C | D3- D2 :|
